packages/kaspersky-hexa-ui-icons/src/iconsSVGs/24/ArrowDown.svg

<svg width="24" height="24" viewBox="0 0 24 24" fill="none" xmlns="http://www.w3.org/2000/svg">
<path d="M11.0002 4.09961C11.0002 3.54733 11.4479 3.09961 12.0002 3.09961C12.5525 3.09961 13.0002 3.54733 13.0002 4.09961L13.0002 17.486L18.045 12.4411C18.4355 12.0506 19.0687 12.0506 19.4592 12.4411C19.8498 12.8316 19.8498 13.4648 19.4592 13.8553L12.7156 20.5989C12.638 20.6785 12.5471 20.7451 12.4467 20.7953C12.3123 20.8625 12.1606 20.9003 12.0002 20.9003C11.8721 20.9003 11.7497 20.8762 11.6371 20.8323C11.5117 20.7836 11.3942 20.7086 11.293 20.6074L4.54094 13.8553C4.15042 13.4648 4.15042 12.8316 4.54094 12.4411C4.93146 12.0506 5.56463 12.0506 5.95515 12.4411L11.0002 17.4861L11.0002 4.09961Z" fill="black"/>
</svg>

<svg xmlns="http://www.w3.org/2000/svg" width="24" height="24" fill="none" viewBox="0 0 24 24"><path d="M0 24h24V0H0z"/><path fill="#000" d="M11.0002 4.0997c0-.5523.4477-1 1-1s1 .4477 1 1V17.486l5.0448-5.0448c.3905-.3905 1.0237-.3905 1.4142 0 .3906.3905.3906 1.0237 0 1.4142l-6.7436 6.7436a.997.997 0 0 1-.7154.3013.997.997 0 0 1-.7072-.2929l-6.752-6.752c-.3906-.3905-.3906-1.0237 0-1.4142s1.0236-.3905 1.4141 0l5.0451 5.045z"/></svg>
